X:4079
T:Derry Craig Wood
R:reel
C:Charlie Mulvihill
S:(Sharon Shannon)
H:
N:
D:Galway Arts Festival Concert
Z:Adrian Scahill
M:4/4
L:1/8
K:G
B3d eBB2|eBdB AGED|B,DD2 EDB,D|GDGA BAA2|\
BABd eBB2|eBdB AGED|B,DD2 GABd|1 c2BA G3A:|2 c2BA GABc||\
d2Bd gdd2|edBd gdBd|e2^ce aee2|afge fded|\
Bdd2 gdd2|edBd gdBd|BccB cBAB|cAFA G3A:||
BAGE DB,B,2|DEGA B2AB|cBAG FADE|F3G ABcA|\
BAGE DEB,E|DB,DG B2AB|c2cB cBAB|cAFA G4:||
